X:1
T: Husfrhrs Polska - Ore          % name
C:e. Timas Hans Hansson (SvL 52), Ore, Dalarna          % composer
N: Taught by Thomas Westling, 2/20/05; transcr. by Karen Myers, 2/05 Scandia Festival, Petaluma CA     % info
Q:1/4=105     %Tempo
M:3/4     %Meter
L:1/8     %
K:Dm
A>(^c d>e) f>e | (g/a/)g/f/ (de) c>d |(c/d/)c/B/ (G>A) B>d |(d{ed}c) A4 :|
|:F>(A c/d/)c/B/ G>(B | d/e/)d/c/ (AF) D2 | uf(g/f/ e)d/^c/ d>(f |e)d/^c/ (df) a2 |
uF>(A c/d/)c/B/ G>(B | d/e/)d/c/ (AF) D2 |uf(g/f/ e)d/^c/ df/g/ | (a^c) d4 :|
